Icons/TM_Icons/more icons/&.svg

<?xml version='1.0' encoding='utf-8'?>
<ns0:svg xmlns:ns0="http://www.w3.org/2000/svg" version="1.1" viewBox="43.0 -74.5 1629.0 1629.0" role="img" focusable="false" preserveAspectRatio="xMidYMid meet">
   <ns0:path fill="currentColor" d="M1060 800l-76 -89c-119.333 84 -248.333 126 -387 126c-159.333 0 -291.5 -42.833 -396.5 -128.5s-157.5 -193.167 -157.5 -322.5c0 -198 135 -349.333 405 -454c-88.667 -116.667 -133 -222 -133 -316c0 -97.3301 40.833 -177.17 122.5 -239.5 c81.667 -62.3398 185.833 -93.5 312.5 -93.5c132 0 240.5 29 325.5 87s127.5 132.33 127.5 223c0 156.67 -118.67 269.668 -356 339c112.667 176.667 218 328.667 316 456c72.6699 -88.667 109 -176.333 109 -263c0 -40.668 -24 -61.001 -72 -61 c-10.6699 0 -27.0098 -1 -49 -3l-16 -1v-124h537v124l-22 1c-45.3301 2.66699 -78.5 12.833 -99.5 30.5s-44.5 55.5 -70.5 113.5c-46 100.667 -121.67 196 -227 286c60 79.333 106.67 129.833 140 151.5s81.3301 32.5 144 32.5l30 2v123h-507zM778 -181 c86.667 -69.3301 130 -154.33 130 -255c-0.00292969 -52 -10.1699 -90.8301 -30.5 -116.5c-20.333 -25.6699 -50.833 -38.5 -91.5 -38.5c-41.334 0 -72.501 11 -93.5 33c-21 22 -31.5 55.3398 -31.5 100c0 56.6699 39 149 117 277zM909 610 c-142.667 -169.333 -273.333 -353.333 -392 -552c-75.333 56 -113 127 -113 213c0 98.667 35.5 185.833 106.5 261.5s152.5 113.5 244.5 113.5c46.667 0 98 -12 154 -36z" />
</ns0:svg>

<svg xmlns="http://www.w3.org/2000/svg" width="400" height="200" viewBox="-696.5 -717 3108 1554"><path fill="currentColor" d="m1060 800-76-89Q805 837 597 837q-239 0-396.5-128.5C43 580 43 515.333 43 386Q43 89 448-68 315-243 315-384c0-97.33 40.833-177.17 122.5-239.5C519.167-685.84 623.333-717 750-717q198 0 325.5 87C1203-543 1203-497.67 1203-407c0 156.67-118.67 269.668-356 339q169 265 316 456c72.67-88.667 109-176.333 109-263q0-61.002-72-61c-10.67 0-27.01-1-49-3l-16-1V-64h537V60l-22 1c-45.33 2.667-78.5 12.833-99.5 30.5S1506 147 1480 205c-46 100.667-121.67 196-227 286 60 79.333 106.67 129.833 140 151.5s81.33 32.5 144 32.5l30 2v123zM778-181q130-103.995 130-255c-.003-52-10.17-90.83-30.5-116.5-20.333-25.67-50.833-38.5-91.5-38.5q-62.001 0-93.5 33c-21 22-31.5 55.34-31.5 100 0 56.67 39 149 117 277m131 791Q695 356 517 58q-113 84-113 213 0 148 106.5 261.5C617 646 663 646 755 646q70 0 154-36"/></svg>
